icons/file-cloud-line.svg

<svg xmlns="http://www.w3.org/2000/svg" width="24" height="24" fill="none"><g clip-path="url(#a)"><g><path fill="#121212" d="M14.997 2L21 8L21.001 12.26C20.4149 11.7736 19.7337 11.415 19.001 11.207L19 9H14V4H5V20H10.06C10.1744 20.7208 10.454 21.4053 10.877 22H3.993C3.74992 22 3.51528 21.9108 3.33356 21.7493C3.15183 21.5879 3.03564 21.3654 3.007 21.124L3 21.008V2.992C3 2.494 3.387 2.065 3.885 2.007L4.002 2H14.997ZM17.5 13C18.4283 13 19.3185 13.3687 19.9749 14.0251C20.6313 14.6815 21 15.5717 21 16.5L20.999 16.603C21.6246 16.7793 22.1675 17.1714 22.5315 17.7099C22.8955 18.2484 23.057 18.8983 22.9874 19.5446C22.9178 20.1908 22.6215 20.7914 22.1511 21.24C21.6808 21.6886 21.0668 21.9561 20.418 21.995L20.25 22H14.75L14.582 21.995C13.9333 21.9557 13.3196 21.6879 12.8495 21.2392C12.3795 20.7905 12.0835 20.1898 12.0142 19.5437C11.9448 18.8975 12.1064 18.2477 12.4705 17.7094C12.8346 17.1711 13.3775 16.7792 14.003 16.603L14 16.5C14 15.5717 14.3687 14.6815 15.0251 14.0251C15.6815 13.3687 16.5717 13 17.5 13ZM17.5 15C17.1516 14.9999 16.814 15.1211 16.5452 15.3429C16.2764 15.5646 16.0932 15.8729 16.027 16.215L16.007 16.355L16 16.5V18.12L14.556 18.526C14.3896 18.5704 14.2436 18.6708 14.1424 18.8102C14.0413 18.9496 13.9912 19.1195 14.0005 19.2915C14.0099 19.4635 14.0782 19.627 14.1939 19.7545C14.3097 19.8821 14.4658 19.966 14.636 19.992L14.745 20H20.255C20.4363 19.9986 20.611 19.9316 20.7467 19.8113C20.8824 19.6911 20.97 19.5257 20.9932 19.3459C21.0163 19.1661 20.9736 18.9839 20.8728 18.8332C20.772 18.6824 20.62 18.5733 20.445 18.526L19.432 18.243L19 18.12V16.5L18.993 16.356C18.9572 15.9848 18.7844 15.6403 18.5084 15.3896C18.2324 15.1389 17.8729 15 17.5 15Z"/></g></g><defs><clipPath id="a"><rect width="24" height="24" fill="white"/></clipPath></defs></svg>

<svg width="24" height="24" fill="none" xmlns="http://www.w3.org/2000/svg"><g clip-path="url(#a)"><path d="M14.997 2 21 8l.001 4.26a5.471 5.471 0 0 0-2-1.053L19 9h-5V4H5v16h5.06a4.73 4.73 0 0 0 .817 2H3.993a.993.993 0 0 1-.986-.876L3 21.008V2.992c0-.498.387-.927.885-.985L4.002 2h10.995ZM17.5 13a3.5 3.5 0 0 1 3.5 3.5l-.001.103a2.75 2.75 0 0 1-.581 5.392L20.25 22h-5.5l-.168-.005a2.75 2.75 0 0 1-.579-5.392L14 16.5a3.5 3.5 0 0 1 3.5-3.5Zm0 2a1.5 1.5 0 0 0-1.473 1.215l-.02.14L16 16.5v1.62l-1.444.406a.75.75 0 0 0 .08 1.466l.109.008h5.51a.75.75 0 0 0 .19-1.474l-1.013-.283L19 18.12V16.5l-.007-.144A1.5 1.5 0 0 0 17.5 15Z" /></g><defs><clipPath id="a"><path fill="#fff" d="M0 0h24v24H0z"/></clipPath></defs></svg>
